not-equal.svg

<svg fill="currentColor" viewBox="0 0 24 24"><path d="M21 10H9V8h12zm0 6H9v-2h12zM4 5h2v11H4zm2 13v2H4v-2z"/></svg>

<svg  viewBox="0 0 24 24" fill="currentColor"><path  d="M21,10H9V8H21V10M21,16H9V14H21V16M4,5H6V16H4V5M6,18V20H4V18H6Z"/></svg>
